; generated by PrusaSlicer 2.4.0 on 2026-02-27 at 19:35:05 UTC

; 

; external perimeters extrusion width = 0.45mm
; perimeters extrusion width = 0.45mm
; infill extrusion width = 0.45mm
; solid infill extrusion width = 0.45mm
; top infill extrusion width = 0.40mm
; support material extrusion width = 0.40mm
; first layer extrusion width = 0.70mm

M107
M104 S200 ; set temperature
;TYPE:Custom
G28 ; home all axes
G1 Z5 F5000 ; lift nozzle
M109 S200 ; set temperature and wait for it to be reached
G21 ; set units to millimeters
G90 ; use absolute coordinates
M82 ; use absolute distances for extrusion
G92 E0
; Filament gcode
M107
;LAYER_CHANGE
;Z:0.35
;HEIGHT:0.35
G1 Z.35 F7800
G1 E-2 F2400
G92 E0
G1 X80.983 Y98.588 F7800
G1 E2 F2400
;TYPE:Skirt/Brim
;WIDTH:0.7
G1 F1800
G1 X83.016 Y97.818 E2.19764
G1 X97.301 Y94.961 E3.52233
G1 X98.6 Y94.833 E3.64105
G1 X121.4 Y94.833 E5.71419
G1 X122.699 Y94.961 E5.83291
G1 X136.984 Y97.818 E7.1576
G1 X139.121 Y98.651 E7.36614
G1 X140.847 Y100.162 E7.57468
G1 X141.953 Y102.17 E7.78322
G1 X142.31 Y104.314 E7.98086
G1 X142.31 Y118.543 E9.27462
G1 X141.913 Y120.801 E9.48317
G1 X140.77 Y122.79 E9.69171
G1 X139.017 Y124.269 E9.90025
G1 X136.115 Y125.154 E10.17612
G1 X116.53 Y126.427 E11.96075
G1 X103.47 Y126.427 E13.14824
G1 X83.885 Y125.154 E14.93288
G1 X81.657 Y124.611 E15.14142
G1 X79.747 Y123.341 E15.34996
G1 X78.385 Y121.496 E15.5585
G1 X77.69 Y118.543 E15.83437
G1 X77.69 Y104.314 E17.12813
G1 X78.087 Y102.056 E17.33667
G1 X79.23 Y100.068 E17.54522
G1 X80.937 Y98.627 E17.7483
G1 E15.7483 F2400
G92 E0
G1 X98.752 Y106.982 F7800
G1 E2 F2400
;TYPE:Support material interface
;WIDTH:0.4
G1 F1800
G1 X98.752 Y115.714 E2.41281
G1 X99.109 Y115.714 E2.42969
G1 X99.109 Y107.143 E2.8349
G1 X99.466 Y107.143 E2.85179
G1 X99.466 Y115.714 E3.257
G1 X99.823 Y115.714 E3.27388
G1 X99.823 Y107.143 E3.67909
G1 X100.18 Y107.143 E3.69597
G1 X100.18 Y115.714 E4.10119
G1 X100.537 Y115.714 E4.11807
G1 X100.537 Y107.143 E4.52328
G1 X100.894 Y107.143 E4.54016
G1 X100.894 Y115.875 E4.95297
G1 X101.252 Y115.875 F7800
G1 F1800
G1 X101.252 Y113.445 E5.06784
G1 X101.966 Y113.643 F7800
G1 F1800
G1 X101.966 Y115.714 E5.16577
G1 X102.323 Y115.714 E5.18265
G1 X102.323 Y113.829 E5.27179
G1 X102.68 Y113.829 E5.28868
G1 X102.68 Y115.714 E5.37782
G1 X103.037 Y115.714 E5.3947
G1 X103.037 Y113.829 E5.48385
G1 X103.394 Y113.829 E5.50073
G1 X103.394 Y115.714 E5.58988
G1 X103.751 Y115.714 E5.60676
G1 X103.751 Y113.829 E5.6959
G1 X104.108 Y113.829 E5.71278
G1 X104.108 Y115.714 E5.80193
G1 X104.465 Y115.714 E5.81881
G1 X104.465 Y113.829 E5.90796
G1 X104.503 Y113.829 E5.90974
G1 X104.739 Y113.592 E5.92555
G1 X104.739 Y107.46 E6.21547
G1 X104.617 Y107.264 E6.22638
G1 X104.465 Y107.188 E6.23441
G1 X104.465 Y107.143 E6.23654
G1 X104.822 Y107.143 E6.25342
G1 X104.822 Y115.714 E6.65864
G1 X105.179 Y115.714 E6.67552
G1 X105.179 Y107.143 E7.08073
G1 X105.536 Y107.143 E7.09761
G1 X105.536 Y115.714 E7.50282
G1 X105.894 Y115.714 E7.51971
G1 X105.894 Y107.143 E7.92492
G1 X106.251 Y107.143 E7.9418
G1 X106.251 Y115.714 E8.34701
G1 X106.608 Y115.714 E8.36389
G1 X106.608 Y107.143 E8.76911
G1 X106.965 Y107.143 E8.78599
G1 X106.965 Y115.875 E9.1988
G1 E7.1988 F2400
G92 E0
G1 X102.529 Y113.3 F7800
G1 E2 F2400
;TYPE:Support material
;WIDTH:0.7
G1 F1800
G1 X102.415 Y113.3 E2.01036
G1 X102.019 Y112.904 E2.06126
G1 X102.019 Y108.016 E2.50577
G1 X102.489 Y107.931 E2.54911
G1 X102.489 Y107.662 E2.57354
G1 X102.529 Y107.647 E2.57749
G1 X102.529 Y113.206 E3.08294
G1 E1.08294 F2400
G92 E0
G1 X101.609 Y115.875 F7800
G1 E2 F2400
;TYPE:Support material interface
;WIDTH:0.4
G1 F1800
G1 X101.609 Y107.143 E2.41281
G1 X101.252 Y107.143 E2.42969
G1 X101.252 Y107.516 E2.44735
G1 X102.323 Y107.331 F7800
G1 F1800
G1 X102.323 Y106.982 E2.46385
G1 E.46385 F2400
G92 E0
G1 X115.535 Y107.368 F7800
G1 E2 F2400
G1 F1800
G1 X115.535 Y107.143 E2.01064
G1 X115.178 Y107.143 E2.02753
G1 X115.178 Y115.714 E2.43274
G1 X115.535 Y115.714 E2.44962
G1 X115.535 Y113.829 E2.53877
G1 X115.892 Y113.829 E2.55565
G1 X115.892 Y115.714 E2.64479
G1 X116.249 Y115.714 E2.66167
G1 X116.249 Y113.829 E2.75082
G1 X116.606 Y113.829 E2.7677
G1 X116.606 Y115.714 E2.85685
G1 X116.963 Y115.714 E2.87373
G1 X116.963 Y113.829 E2.96288
G1 X117.32 Y113.829 E2.97976
G1 X117.32 Y115.714 E3.0689
G1 X117.677 Y115.714 E3.08578
G1 X117.677 Y113.829 E3.17493
G1 X117.804 Y113.829 E3.18091
G1 X117.829 Y113.804 E3.18259
G1 X118.034 Y113.804 E3.1923
G1 X118.034 Y115.875 E3.29022
G1 X118.391 Y115.875 F7800
G1 F1800
G1 X118.391 Y106.982 E3.71063
G1 X118.748 Y107.516 F7800
G1 F1800
G1 X118.748 Y107.143 E3.72829
G1 X119.105 Y107.143 E3.74517
G1 X119.105 Y115.714 E4.15039
G1 X119.463 Y115.714 E4.16727
G1 X119.463 Y107.143 E4.57248
G1 X119.82 Y107.143 E4.58936
G1 X119.82 Y115.714 E4.99457
G1 X120.177 Y115.714 E5.01146
G1 X120.177 Y107.143 E5.41667
G1 X120.534 Y107.143 E5.43355
G1 X120.534 Y115.714 E5.83876
G1 X120.891 Y115.714 E5.85564
G1 X120.891 Y107.143 E6.26086
G1 X121.248 Y107.143 E6.27774
G1 X121.248 Y115.875 E6.69055
G1 E4.69055 F2400
G92 E0
G1 X118.748 Y115.875 F7800
G1 E2 F2400
G1 F1800
G1 X118.748 Y113.445 E2.11487
G1 E.11487 F2400
G92 E0
G1 X114.821 Y115.875 F7800
G1 E2 F2400
G1 F1800
G1 X114.821 Y107.143 E2.41281
G1 X114.463 Y107.143 E2.42969
G1 X114.463 Y115.714 E2.8349
G1 X114.106 Y115.714 E2.85179
G1 X114.106 Y107.143 E3.257
G1 X113.749 Y107.143 E3.27388
G1 X113.749 Y115.714 E3.67909
G1 X113.392 Y115.714 E3.69597
G1 X113.392 Y107.143 E4.10119
G1 X113.035 Y107.143 E4.11807
G1 X113.035 Y115.875 E4.53088
G1 E2.53088 F2400
G92 E0
G1 X117.511 Y107.662 F7800
G1 E2 F2400
;TYPE:Support material
;WIDTH:0.7
G1 F1800
G1 X117.511 Y107.933 E2.02464
G1 X117.981 Y108.015 E2.06793
G1 X117.981 Y112.904 E2.5125
G1 X117.585 Y113.3 E2.5634
G1 X117.471 Y113.3 E2.57376
G1 X117.471 Y107.698 E3.08316
G1 X117.677 Y107.331 F7800
;TYPE:Support material interface
;WIDTH:0.4
G1 F1800
G1 X117.677 Y106.982 E3.09966
G1 E1.09966 F2400
G92 E0
G1 X121.4 Y104.314 F7800
G1 E2 F2400
;TYPE:Support material
;WIDTH:0.7
G1 F1800
G1 X135.685 Y104.314 E3.29897
G1 X135.685 Y118.543 E4.59272
G1 X118.957 Y118.543 E6.1138
G1 X118.957 Y116.959 E6.25781
G1 X116.1 Y119.816 E6.62521
G1 X116.1 Y116.243 E6.95012
G1 X121.957 Y116.243 E7.4827
G1 X121.957 Y106.614 E8.35822
G1 X116.41 Y106.614 E8.8626
G1 X116.41 Y106.837 E8.88285
G1 X116.243 Y106.853 E8.89813
G1 X116.243 Y106.614 E8.91987
G1 X112.328 Y106.614 E9.2758
G1 X112.328 Y116.243 E10.15132
G1 X115.328 Y116.243 E10.42411
G1 X115.328 Y118.543 E10.63323
G1 X104.672 Y118.543 E11.60225
G1 X104.672 Y116.243 E11.81137
G1 X107.672 Y116.243 E12.08416
G1 X107.672 Y106.614 E12.95968
G1 X103.757 Y106.614 E13.31561
G1 X103.757 Y106.853 E13.33736
G1 X103.59 Y106.837 E13.35263
G1 X103.59 Y106.614 E13.37288
G1 X98.043 Y106.614 E13.87727
G1 X98.043 Y116.243 E14.75278
G1 X103.9 Y116.243 E15.28537
G1 X103.9 Y119.816 E15.61027
G1 X101.043 Y116.959 E15.97768
G1 X101.043 Y118.543 E16.12168
G1 X84.315 Y118.543 E17.64276
G1 X84.315 Y104.314 E18.93652
G1 X98.6 Y104.314 E20.23548
G1 X98.6 Y101.457 E20.49528
G1 X121.4 Y101.457 E22.56841
G1 X121.4 Y104.221 E22.81968
G1 E20.81968 F2400
G92 E0
G1 X103.057 Y118.575 F7800
G1 E2 F2400
G1 F1800
G1 X103.057 Y116.805 E2.16093
G1 X102.362 Y116.805 E2.22406
G1 X102.362 Y117.881 E2.32185
G1 E.32185 F2400
G92 E0
G1 X117.638 Y117.881 F7800
G1 E2 F2400
G1 F1800
G1 X117.638 Y116.805 E2.09779
G1 X116.943 Y116.805 E2.16093
G1 X116.943 Y118.575 E2.32185
G1 E.32185 F2400
G92 E0
G1 X134.996 Y118.261 F7800
G1 E2 F2400
G1 F1800
G1 X134.996 Y104.877 E3.21705
G1 X134.301 Y104.877 E3.28018
G1 X134.301 Y117.98 E4.47166
G1 X133.607 Y117.98 E4.5348
G1 X133.607 Y104.877 E5.72628
G1 X132.913 Y104.877 E5.78941
G1 X132.913 Y117.98 E6.98089
G1 X132.218 Y117.98 E7.04403
G1 X132.218 Y104.877 E8.23551
G1 X131.524 Y104.877 E8.29864
G1 X131.524 Y117.98 E9.49012
G1 X130.83 Y117.98 E9.55326
G1 X130.83 Y104.877 E10.74474
G1 X130.135 Y104.877 E10.80787
G1 X130.135 Y117.98 E11.99935
G1 X129.441 Y117.98 E12.06249
G1 X129.441 Y104.877 E13.25397
G1 X128.747 Y104.877 E13.3171
G1 X128.747 Y117.98 E14.50858
G1 X128.052 Y117.98 E14.57171
G1 X128.052 Y104.877 E15.76319
G1 X127.358 Y104.877 E15.82633
G1 X127.358 Y117.98 E17.01781
G1 X126.664 Y117.98 E17.08094
G1 X126.664 Y104.877 E18.27242
G1 X125.969 Y104.877 E18.33556
G1 X125.969 Y117.98 E19.52704
G1 X125.275 Y117.98 E19.59017
G1 X125.275 Y104.877 E20.78165
G1 X124.581 Y104.877 E20.84479
G1 X124.581 Y117.98 E22.03627
G1 X123.886 Y117.98 E22.0994
G1 X123.886 Y104.877 E23.29088
G1 X123.192 Y104.877 E23.35402
G1 X123.192 Y117.98 E24.5455
G1 X122.498 Y117.98 E24.60863
G1 X122.498 Y104.877 E25.80011
G1 X121.803 Y104.877 E25.86325
G1 X121.803 Y106.052 E25.97009
G1 X121.109 Y106.052 E26.03322
G1 X121.109 Y104.877 E26.14006
G1 X120.837 Y104.877 E26.16478
G1 X120.837 Y102.02 E26.42458
G1 X120.415 Y102.02 E26.46299
G1 X120.415 Y106.052 E26.82963
G1 X119.72 Y106.052 E26.89276
G1 X119.72 Y102.02 E27.2594
G1 X119.026 Y102.02 E27.32253
G1 X119.026 Y106.052 E27.68917
G1 X118.332 Y106.052 E27.7523
G1 X118.332 Y102.02 E28.11894
G1 X117.638 Y102.02 E28.18207
G1 X117.638 Y106.052 E28.54871
G1 X116.943 Y106.052 E28.61184
G1 X116.943 Y102.02 E28.97848
G1 X116.249 Y102.02 E29.04161
G1 X116.249 Y106.052 E29.40825
G1 X115.555 Y106.052 E29.47138
G1 X115.555 Y102.02 E29.83802
G1 X114.86 Y102.02 E29.90115
G1 X114.86 Y106.052 E30.26779
G1 X114.166 Y106.052 E30.33092
G1 X114.166 Y102.02 E30.69756
G1 X113.472 Y102.02 E30.76069
G1 X113.472 Y106.052 E31.12732
G1 X112.777 Y106.052 E31.19046
G1 X112.777 Y102.02 E31.55709
G1 X112.083 Y102.02 E31.62023
G1 X112.083 Y106.052 E31.98686
G1 X111.766 Y106.052 E32.01568
G1 X111.766 Y116.805 E32.99348
G1 X112.083 Y116.805 E33.02229
G1 X112.083 Y117.98 E33.12914
G1 X112.777 Y117.98 E33.19227
G1 X112.777 Y116.805 E33.29911
G1 X113.472 Y116.805 E33.36225
G1 X113.472 Y117.98 E33.46909
G1 X114.166 Y117.98 E33.53223
G1 X114.166 Y116.524 E33.66464
G1 E31.66464 F2400
G92 E0
G1 X121.803 Y118.261 F7800
G1 E2 F2400
G1 F1800
G1 X121.803 Y116.805 E2.13241
G1 X121.109 Y116.805 E2.19555
G1 X121.109 Y117.98 E2.30239
G1 X120.415 Y117.98 E2.36552
G1 X120.415 Y116.805 E2.47237
G1 X119.72 Y116.805 E2.5355
G1 X119.72 Y118.261 E2.66791
G1 E.66791 F2400
G92 E0
G1 X111.389 Y118.261 F7800
G1 E2 F2400
G1 F1800
G1 X111.389 Y102.02 E3.47684
G1 X110.694 Y102.02 E3.53998
G1 X110.694 Y117.98 E4.99125
G1 X110 Y117.98 E5.05438
G1 X110 Y102.02 E6.50566
G1 X109.306 Y102.02 E6.56879
G1 X109.306 Y117.98 E8.02007
G1 X108.611 Y117.98 E8.0832
G1 X108.611 Y102.02 E9.53447
G1 X107.917 Y102.02 E9.59761
G1 X107.917 Y106.052 E9.96424
G1 X107.223 Y106.052 E10.02738
G1 X107.223 Y102.02 E10.39401
G1 X106.528 Y102.02 E10.45715
G1 X106.528 Y106.052 E10.82378
G1 X105.834 Y106.052 E10.88691
G1 X105.834 Y102.02 E11.25355
G1 X105.14 Y102.02 E11.31668
G1 X105.14 Y106.052 E11.68332
G1 X104.445 Y106.052 E11.74645
G1 X104.445 Y102.02 E12.11309
G1 X103.751 Y102.02 E12.17622
G1 X103.751 Y106.052 E12.54286
G1 X103.057 Y106.052 E12.60599
G1 X103.057 Y102.02 E12.97263
G1 X102.362 Y102.02 E13.03576
G1 X102.362 Y106.052 E13.4024
G1 X101.668 Y106.052 E13.46553
G1 X101.668 Y102.02 E13.83217
G1 X100.974 Y102.02 E13.8953
G1 X100.974 Y106.052 E14.26194
G1 X100.28 Y106.052 E14.32507
G1 X100.28 Y102.02 E14.69171
G1 X99.585 Y102.02 E14.75484
G1 X99.585 Y106.052 E15.12148
G1 X98.891 Y106.052 E15.18461
G1 X98.891 Y104.877 E15.29145
G1 X98.197 Y104.877 E15.35459
G1 X98.197 Y106.333 E15.487
G1 E13.487 F2400
G92 E0
G1 X107.917 Y118.261 F7800
G1 E2 F2400
G1 F1800
G1 X107.917 Y116.805 E2.13241
G1 X107.223 Y116.805 E2.19555
G1 X107.223 Y117.98 E2.30239
G1 X106.528 Y117.98 E2.36552
G1 X106.528 Y116.805 E2.47237
G1 X105.834 Y116.805 E2.5355
G1 X105.834 Y118.261 E2.66791
G1 E.66791 F2400
G92 E0
G1 X100.28 Y118.261 F7800
G1 E2 F2400
G1 F1800
G1 X100.28 Y116.805 E2.13241
G1 X99.585 Y116.805 E2.19555
G1 X99.585 Y117.98 E2.30239
G1 X98.891 Y117.98 E2.36552
G1 X98.891 Y116.805 E2.47237
G1 X98.197 Y116.805 E2.5355
G1 X98.197 Y117.98 E2.64234
G1 X97.502 Y117.98 E2.70548
G1 X97.502 Y104.877 E3.89696
G1 X96.808 Y104.877 E3.96009
G1 X96.808 Y117.98 E5.15157
G1 X96.114 Y117.98 E5.21471
G1 X96.114 Y104.877 E6.40619
G1 X95.419 Y104.877 E6.46932
G1 X95.419 Y117.98 E7.6608
G1 X94.725 Y117.98 E7.72393
G1 X94.725 Y104.877 E8.91541
G1 X94.031 Y104.877 E8.97855
G1 X94.031 Y117.98 E10.17003
G1 X93.336 Y117.98 E10.23316
G1 X93.336 Y104.877 E11.42464
G1 X92.642 Y104.877 E11.48778
G1 X92.642 Y117.98 E12.67926
G1 X91.948 Y117.98 E12.74239
G1 X91.948 Y104.877 E13.93387
G1 X91.253 Y104.877 E13.99701
G1 X91.253 Y117.98 E15.18849
G1 X90.559 Y117.98 E15.25162
G1 X90.559 Y104.877 E16.4431
G1 X89.865 Y104.877 E16.50624
G1 X89.865 Y117.98 E17.69772
G1 X89.17 Y117.98 E17.76085
G1 X89.17 Y104.877 E18.95233
G1 X88.476 Y104.877 E19.01547
G1 X88.476 Y117.98 E20.20695
G1 X87.782 Y117.98 E20.27008
G1 X87.782 Y104.877 E21.46156
G1 X87.087 Y104.877 E21.52469
G1 X87.087 Y117.98 E22.71617
G1 X86.393 Y117.98 E22.77931
G1 X86.393 Y104.877 E23.97079
G1 X85.699 Y104.877 E24.03392
G1 X85.699 Y117.98 E25.2254
G1 X85.004 Y117.98 E25.28854
G1 X85.004 Y104.596 E26.50559
G1 E24.50559 F2400
G92 E0
G1 X116.238 Y107.503 F7800
G1 E2 F2400
;TYPE:External perimeter
;WIDTH:0.863567
G1 F1800
G1 X116.502 Y107.863 E2.05124
;WIDTH:0.863565
G1 X116.502 Y113.425 E2.68932
G1 E.68932 F2400
G92 E0
G1 X103.762 Y107.503 F7800
G1 E2 F2400
;WIDTH:0.863564
G1 F1800
G1 X103.498 Y107.863 E2.05124
;WIDTH:0.863567
G1 X103.498 Y113.425 E2.68932
;LAYER_CHANGE
;Z:0.55
;HEIGHT:0.2
G1 Z.55 F7800
G1 E.68932 F2400
G92 E0
G1 X107.682 Y112.857 F7800
G1 E2 F2400
;TYPE:Support material
;WIDTH:0.4
G1 F3600
G1 X112.157 Y112.857 E2.13287
G1 X112.157 Y110 E2.2177
G1 X107.843 Y110 E2.3458
G1 X107.843 Y107.143 E2.43063
G1 X112.318 Y107.143 E2.56349
G1 X113.035 Y106.982 F7800
;TYPE:Support material interface
G1 F3600
G1 X113.035 Y115.714 E2.82276
G1 X113.392 Y115.714 E2.83336
G1 X113.392 Y107.143 E3.08785
G1 X113.749 Y107.143 E3.09845
G1 X113.749 Y115.714 E3.35295
G1 X114.106 Y115.714 E3.36355
G1 X114.106 Y107.143 E3.61804
G1 X114.463 Y107.143 E3.62864
G1 X114.463 Y115.875 E3.88791
G1 E1.88791 F2400
G92 E0
G1 X106.965 Y115.875 F7800
G1 E2 F2400
G1 F3600
G1 X106.965 Y107.143 E2.25926
G1 X106.608 Y107.143 E2.26987
G1 X106.608 Y115.714 E2.52436
G1 X106.251 Y115.714 E2.53496
G1 X106.251 Y107.143 E2.78945
G1 X105.894 Y107.143 E2.80005
G1 X105.894 Y115.714 E3.05455
G1 X105.536 Y115.714 E3.06515
G1 X105.536 Y107.143 E3.31964
G1 X105.179 Y107.143 E3.33024
G1 X105.179 Y115.714 E3.58473
G1 X104.822 Y115.714 E3.59534
G1 X104.822 Y113.829 E3.65132
G1 X104.465 Y113.829 E3.66193
G1 X104.465 Y115.714 E3.71791
G1 X104.108 Y115.714 E3.72851
G1 X104.108 Y113.829 E3.7845
G1 X103.751 Y113.829 E3.7951
G1 X103.751 Y115.714 E3.85109
G1 X103.394 Y115.714 E3.86169
G1 X103.394 Y113.829 E3.91768
G1 X103.037 Y113.829 E3.92828
G1 X103.037 Y115.714 E3.98427
G1 X102.68 Y115.714 E3.99487
G1 X102.68 Y113.829 E4.05086
G1 X102.323 Y113.829 E4.06146
G1 X102.323 Y115.714 E4.11745
G1 X101.966 Y115.714 E4.12805
G1 X101.966 Y113.829 E4.18404
G1 X101.702 Y113.829 E4.19186
G1 X101.677 Y113.804 E4.19291
G1 X101.609 Y113.804 E4.19495
G1 X101.609 Y115.714 E4.25168
G1 X101.252 Y115.714 E4.26228
G1 X101.252 Y113.672 E4.3229
G1 X101.029 Y113.45 E4.33224
G1 X101.029 Y107.542 E4.50765
G1 X101.252 Y107.23 E4.51904
G1 X101.252 Y107.143 E4.52162
G1 X100.894 Y107.143 E4.53222
G1 X100.894 Y115.714 E4.78671
G1 X100.537 Y115.714 E4.79731
G1 X100.537 Y107.143 E5.0518
G1 X100.18 Y107.143 E5.06241
G1 X100.18 Y115.714 E5.3169
G1 X99.823 Y115.714 E5.3275
G1 X99.823 Y107.143 E5.58199
G1 X99.466 Y107.143 E5.59259
G1 X99.466 Y115.714 E5.84709
G1 X99.109 Y115.714 E5.85769
G1 X99.109 Y107.143 E6.11218
G1 X98.752 Y107.143 E6.12278
G1 X98.752 Y115.875 E6.38205
G1 X98.193 Y115.693 F7800
;TYPE:Support material
G1 F3600
G1 X95.736 Y115.693 E6.455
G1 X95.736 Y107.164 E6.70822
G1 X98.193 Y107.164 E6.78117
G1 X98.193 Y115.639 E7.0328
G1 X98.032 Y112.857 F7800
G1 F3600
G1 X96.057 Y112.857 E7.09144
G1 X96.057 Y110 E7.17627
G1 X98.032 Y110 E7.23491
G1 E5.23491 F2400
G92 E0
G1 X92.675 Y110 F7800
G1 E2 F2400
